X: 1
T: the Vantastic Jig
C: Cammy Kaynor (2002)
R: jig
N: Posted on youtube 2020-2-27 by Cammy Kaynor.
M: 6/8
L: 1/8
K: Am
"E7"E |\
"Am7"A2 c e2 g | "Am7"e2 g e2 d | "Am"cdc "G"BcB | "Am"ABA "Em"G2 E |\
"Am7"A2 c e2 g | "Am7"e2 g e2 c | "G7"dfd B2 A | "G7"G3-G2 ||
D |\
"G7"G2 B d2 f | "G7"d2 f d2 c | "G"BcB "Am"ABA | "G"GAG "Dm"F2 D |\
"Em7"E2 G B2 d | "Fm7"F2 _A c2 _e | "E7"E2 c BA^G | "Am"A3-A2 :|
"E7"E |\
"A"A2 ^c e2 f | "A7"gfe ^c_BA | "Dm"d^cd ede | "Dm"f3-f2 D |\
"G"G2 B d2 e | "G7"fed BAG | "C"cBc dcd | "C"e3- e2 ||
D |\
"E"E2 ^G B2 c | "E7"dcB fed | "Am"cBc dcd | "Am"e3- e2 e |\
"Dm"fed a2 d | "Am"edc a2 c | "E7"dcB ^gab | "Am"a3- a2 |]

%%sep 1 1 500

